!!!COM: Beethoven
!!!OTL: 9 Variationen uber "Quant' e piu bello" von G. Paisiello
!!!Variation: Theme b2
**function	**harm	**kern	**kern
*	*	*clefF4	*clefG2
*	*	*k[f#c#g#]	*k[f#c#g#]
*M2/4	*M2/4	*M2/4	*M2/4
*A:	*A:	*A:	*A:
=17	=17	=17	=17
2D	F#:maj/5	8AL 8c#	4e 4ee
.	.	8EJ	.
.	.	8AL 8c#	4e 4ee
.	.	8EJ	.
=18	=18	=18	=18
2D	C#:7	8BL 8d	8eL 8dd
.	.	8EJ	8bJ
.	.	8BL 8d	4g#
.	.	8EJ	.
=19	=19	=19	=19
2D	F#:maj/5	8AL 8c#	8eeL
.	.	8EJ	8eeJ
.	.	8AL 8c#	8eeL
.	.	8EJ	8eeJ
=20	=20	=20	=20
2D	C#:7	8BL 8d	8eL 8dd
.	.	8EJ	8bJ
.	.	8BL 8d	8g#
.	.	8EJ	8r
=21	=21	=21	=21
2D	F#:maj	4A 4c#	16aLL
.	.	.	16cc#
.	.	.	16b
.	.	.	16ddJJ
.	.	4r	16cc#LL
.	.	.	16ee
.	.	.	16dd
.	.	.	16ff#JJ
=22	=22	=22	=22
2D	F#:maj	2r	4ee
.	.	.	q8gg#
.	.	.	8aa
.	.	.	8r
=23	=23	=23	=23
4D	F#:maj/5	4E 4e	4cc#
.	.	.	q8cc#
4D	C#:7	4E 4d	(16bLL
.	.	.	16a
.	.	.	16b
.	.	.	16cc#JJ)
=24	=24	=24	=24
4.T	F#:maj	4A 4c#	4a
.	.	8AA	8r
*-	*-	*-	*-
!!!EMD: Edited in humdrumR 0.7.0.3 on 2024-01-19
